svg/color/ethmaxy.svg

<?xml version="1.0" encoding="UTF-8" ?>
<!DOCTYPE svg PUBLIC "-//W3C//DTD SVG 1.1//EN" "http://www.w3.org/Graphics/SVG/1.1/DTD/svg11.dtd">
<svg width="250pt" height="250pt" viewBox="0 0 250 250" version="1.1" xmlns="http://www.w3.org/2000/svg">
<g id="#ffffffff">
<path fill="#ffffff" opacity="1.00" d=" M 0.00 0.00 L 117.61 0.00 C 101.84 1.31 86.17 4.97 71.85 11.81 C 41.89 25.76 18.00 52.10 7.11 83.30 C 3.27 93.70 1.49 104.68 0.00 115.62 L 0.00 0.00 Z" />
<path fill="#ffffff" opacity="1.00" d=" M 133.46 0.00 L 250.00 0.00 L 250.00 117.84 C 249.33 111.67 248.57 105.51 247.33 99.42 C 240.83 67.60 221.25 38.75 194.14 20.86 C 176.18 8.71 154.97 2.00 133.46 0.00 Z" />
<path fill="#ffffff" opacity="1.00" d=" M 111.45 7.73 C 135.50 5.14 160.34 9.65 181.54 21.42 C 207.27 35.41 227.40 59.32 236.72 87.09 C 246.05 114.57 244.82 145.54 233.13 172.12 C 221.53 198.91 199.58 221.00 172.88 232.80 C 146.72 244.53 116.22 246.08 88.94 237.33 C 61.81 228.72 38.14 209.85 23.62 185.37 C 9.23 161.53 3.97 132.48 8.67 105.07 C 13.31 77.21 28.48 51.29 50.43 33.53 C 67.74 19.31 89.21 10.28 111.45 7.73 M 124.74 16.80 L 124.80 17.63 C 109.89 39.64 95.72 62.14 81.03 84.29 C 95.65 92.97 110.46 101.34 125.19 109.84 C 139.81 101.34 154.55 93.04 169.10 84.41 L 169.66 84.60 C 156.39 64.43 143.24 44.18 130.01 23.98 C 128.36 21.52 127.00 18.79 124.74 16.80 M 124.95 124.05 C 108.65 114.74 92.49 105.18 76.09 96.05 C 75.80 95.73 75.23 95.10 74.95 94.78 C 67.19 106.55 63.60 121.08 65.36 135.09 C 66.84 148.87 73.40 162.03 83.44 171.57 C 94.30 182.22 109.38 188.22 124.56 188.39 C 135.98 188.36 147.42 185.21 157.04 179.02 C 170.23 170.71 179.93 157.09 183.41 141.89 C 187.05 126.09 184.21 108.91 175.35 95.29 C 158.60 104.96 141.80 114.54 124.95 124.05 M 145.99 197.31 C 148.66 202.10 151.82 206.62 154.29 211.51 C 154.66 214.53 154.38 217.59 154.43 220.62 C 155.29 220.62 157.02 220.62 157.89 220.62 C 158.16 216.88 156.92 212.65 159.24 209.34 C 161.60 205.34 164.11 201.42 166.33 197.34 C 165.00 197.33 163.68 197.33 162.36 197.35 C 160.46 200.54 158.78 203.86 156.78 206.99 C 156.45 206.91 155.78 206.74 155.45 206.66 C 153.38 203.70 152.11 200.23 149.86 197.39 C 148.57 197.31 147.28 197.29 145.99 197.31 M 96.22 205.67 C 94.52 202.06 88.97 202.29 86.74 205.25 C 88.76 206.53 91.99 205.23 93.27 207.57 C 93.76 211.90 93.34 216.29 93.47 220.64 C 94.32 220.63 96.00 220.61 96.84 220.60 C 97.04 216.00 96.16 211.26 97.61 206.80 C 98.19 206.51 99.36 205.93 99.94 205.64 C 101.07 206.03 102.21 206.42 103.35 206.81 C 103.88 211.40 103.59 216.03 103.65 220.64 C 104.83 220.62 106.01 220.58 107.20 220.54 C 106.81 215.55 108.01 210.31 106.40 205.49 C 104.25 201.57 98.57 202.36 96.22 205.67 M 110.98 207.31 C 112.19 207.50 113.39 207.67 114.61 207.82 C 116.24 205.43 119.36 205.05 121.65 206.77 C 121.70 207.50 121.78 208.98 121.83 209.72 C 118.64 210.57 114.90 210.13 112.17 212.25 C 109.18 214.87 111.11 220.33 114.96 220.81 C 117.84 221.96 120.38 219.80 122.62 218.31 C 122.61 218.92 122.57 220.13 122.56 220.73 L 125.38 220.57 C 125.25 216.04 125.63 211.50 125.17 206.99 C 123.01 200.92 113.45 201.87 110.98 207.31 M 83.33 203.12 C 83.32 208.95 83.33 214.79 83.32 220.63 C 84.45 220.63 85.57 220.63 86.70 220.63 C 87.04 216.06 85.77 211.17 87.71 206.87 C 86.79 205.97 85.02 205.14 86.80 203.41 C 85.64 203.31 84.48 203.21 83.33 203.12 M 128.82 203.24 C 130.50 206.17 132.70 208.83 133.92 211.99 C 132.49 215.01 130.41 217.66 128.81 220.59 C 130.07 220.60 131.32 220.60 132.58 220.60 C 133.83 218.46 135.08 216.32 136.31 214.16 C 137.72 216.25 138.89 218.51 140.40 220.53 C 141.63 220.61 142.86 220.64 144.09 220.62 C 142.28 217.70 140.46 214.78 138.57 211.92 C 140.38 209.02 142.20 206.13 144.01 203.24 C 142.70 203.24 141.39 203.25 140.09 203.27 C 138.98 205.46 137.90 207.71 136.15 209.48 C 134.99 207.42 133.84 205.35 132.73 203.27 C 131.42 203.25 130.12 203.24 128.82 203.24 Z" />
<path fill="#ffffff" opacity="1.00" d=" M 218.66 207.66 C 237.74 186.31 248.75 158.20 250.00 129.64 L 250.00 250.00 L 129.56 250.00 C 163.37 248.66 196.41 233.22 218.66 207.66 Z" />
<path fill="#ffffff" opacity="1.00" d=" M 0.00 133.12 C 1.49 148.34 4.92 163.48 11.47 177.35 C 25.24 207.44 51.47 231.50 82.65 242.59 C 93.85 246.74 105.68 248.75 117.52 250.00 L 0.00 250.00 L 0.00 133.12 Z" />
<path fill="#ffffff" opacity="1.00" d=" M 114.59 213.77 C 117.02 213.20 119.48 212.71 121.94 212.29 C 121.71 214.15 122.12 216.79 119.94 217.63 C 118.17 218.91 116.08 218.02 114.29 217.37 C 114.39 216.17 114.50 214.97 114.59 213.77 Z" />
</g>
<g id="#f37e86ff">
<path fill="#f37e86" opacity="1.00" d=" M 117.61 0.00 L 133.46 0.00 C 154.97 2.00 176.18 8.71 194.14 20.86 C 221.25 38.75 240.83 67.60 247.33 99.42 C 248.57 105.51 249.33 111.67 250.00 117.84 L 250.00 129.64 C 248.75 158.20 237.74 186.31 218.66 207.66 C 196.41 233.22 163.37 248.66 129.56 250.00 L 117.52 250.00 C 105.68 248.75 93.85 246.74 82.65 242.59 C 51.47 231.50 25.24 207.44 11.47 177.35 C 4.92 163.48 1.49 148.34 0.00 133.12 L 0.00 115.62 C 1.49 104.68 3.27 93.70 7.11 83.30 C 18.00 52.10 41.89 25.76 71.85 11.81 C 86.17 4.97 101.84 1.31 117.61 0.00 M 111.45 7.73 C 89.21 10.28 67.74 19.31 50.43 33.53 C 28.48 51.29 13.31 77.21 8.67 105.07 C 3.97 132.48 9.23 161.53 23.62 185.37 C 38.14 209.85 61.81 228.72 88.94 237.33 C 116.22 246.08 146.72 244.53 172.88 232.80 C 199.58 221.00 221.53 198.91 233.13 172.12 C 244.82 145.54 246.05 114.57 236.72 87.09 C 227.40 59.32 207.27 35.41 181.54 21.42 C 160.34 9.65 135.50 5.14 111.45 7.73 Z" />
</g>
<g id="#15639bff">
<path fill="#15639b" opacity="1.00" d=" M 124.74 16.80 C 127.00 18.79 128.36 21.52 130.01 23.98 C 143.24 44.18 156.39 64.43 169.66 84.60 L 169.10 84.41 C 154.57 79.88 139.90 75.79 125.21 71.79 C 125.11 84.48 125.32 97.16 125.19 109.84 C 110.46 101.34 95.65 92.97 81.03 84.29 C 95.07 80.29 109.12 76.31 123.13 72.22 C 125.74 71.95 125.05 68.88 125.24 67.04 C 124.90 50.58 125.70 34.08 124.80 17.63 L 124.74 16.80 Z" />
<path fill="#15639b" opacity="1.00" d=" M 128.51 181.56 C 144.06 152.77 159.84 124.10 175.35 95.29 C 184.21 108.91 187.05 126.09 183.41 141.89 C 179.93 157.09 170.23 170.71 157.04 179.02 C 147.42 185.21 135.98 188.36 124.56 188.39 C 121.90 182.54 118.60 177.03 115.63 171.34 C 102.91 147.74 90.25 124.11 77.49 100.54 C 76.83 99.11 76.53 97.55 76.09 96.05 C 92.49 105.18 108.65 114.74 124.95 124.05 C 124.87 145.24 124.57 166.44 124.93 187.63 C 126.18 185.64 127.38 183.62 128.51 181.56 Z" />
<path fill="#15639b" opacity="1.00" d=" M 145.99 197.31 C 147.28 197.29 148.57 197.31 149.86 197.39 C 152.11 200.23 153.38 203.70 155.45 206.66 C 155.78 206.74 156.45 206.91 156.78 206.99 C 158.78 203.86 160.46 200.54 162.36 197.35 C 163.68 197.33 165.00 197.33 166.33 197.34 C 164.11 201.42 161.60 205.34 159.24 209.34 C 156.92 212.65 158.16 216.88 157.89 220.62 C 157.02 220.62 155.29 220.62 154.43 220.62 C 154.38 217.59 154.66 214.53 154.29 211.51 C 151.82 206.62 148.66 202.10 145.99 197.31 Z" />
</g>
<g id="#449bd4ff">
<path fill="#449bd4" opacity="1.00" d=" M 124.80 17.63 C 125.70 34.08 124.90 50.58 125.24 67.04 C 125.05 68.88 125.74 71.95 123.13 72.22 C 109.12 76.31 95.07 80.29 81.03 84.29 C 95.72 62.14 109.89 39.64 124.80 17.63 Z" />
<path fill="#449bd4" opacity="1.00" d=" M 65.36 135.09 C 63.60 121.08 67.19 106.55 74.95 94.78 C 75.23 95.10 75.80 95.73 76.09 96.05 C 76.53 97.55 76.83 99.11 77.49 100.54 C 90.25 124.11 102.91 147.74 115.63 171.34 C 118.60 177.03 121.90 182.54 124.56 188.39 C 109.38 188.22 94.30 182.22 83.44 171.57 C 73.40 162.03 66.84 148.87 65.36 135.09 Z" />
</g>
<g id="#0b2131ff">
<path fill="#0b2131" opacity="1.00" d=" M 125.21 71.79 C 139.90 75.79 154.57 79.88 169.10 84.41 C 154.55 93.04 139.81 101.34 125.19 109.84 C 125.32 97.16 125.11 84.48 125.21 71.79 Z" />
<path fill="#0b2131" opacity="1.00" d=" M 124.95 124.05 C 141.80 114.54 158.60 104.96 175.35 95.29 C 159.84 124.10 144.06 152.77 128.51 181.56 C 127.38 183.62 126.18 185.64 124.93 187.63 C 124.57 166.44 124.87 145.24 124.95 124.05 Z" />
</g>
<g id="#040707ff">
<path fill="#040707" opacity="1.00" d=" M 96.22 205.67 C 98.57 202.36 104.25 201.57 106.40 205.49 C 108.01 210.31 106.81 215.55 107.20 220.54 C 106.01 220.58 104.83 220.62 103.65 220.64 C 103.59 216.03 103.88 211.40 103.35 206.81 C 102.21 206.42 101.07 206.03 99.94 205.64 C 99.36 205.93 98.19 206.51 97.61 206.80 C 96.16 211.26 97.04 216.00 96.84 220.60 C 96.00 220.61 94.32 220.63 93.47 220.64 C 93.34 216.29 93.76 211.90 93.27 207.57 C 91.99 205.23 88.76 206.53 86.74 205.25 C 88.97 202.29 94.52 202.06 96.22 205.67 Z" />
<path fill="#040707" opacity="1.00" d=" M 110.98 207.31 C 113.45 201.87 123.01 200.92 125.17 206.99 C 125.63 211.50 125.25 216.04 125.38 220.57 L 122.56 220.73 C 122.57 220.13 122.61 218.92 122.62 218.31 C 120.38 219.80 117.84 221.96 114.96 220.81 C 111.11 220.33 109.18 214.87 112.17 212.25 C 114.90 210.13 118.64 210.57 121.83 209.72 C 121.78 208.98 121.70 207.50 121.65 206.77 C 119.36 205.05 116.24 205.43 114.61 207.82 C 113.39 207.67 112.19 207.50 110.98 207.31 M 114.59 213.77 C 114.50 214.97 114.39 216.17 114.29 217.37 C 116.08 218.02 118.17 218.91 119.94 217.63 C 122.12 216.79 121.71 214.15 121.94 212.29 C 119.48 212.71 117.02 213.20 114.59 213.77 Z" />
<path fill="#040707" opacity="1.00" d=" M 83.33 203.12 C 84.48 203.21 85.64 203.31 86.80 203.41 C 85.02 205.14 86.79 205.97 87.71 206.87 C 85.77 211.17 87.04 216.06 86.70 220.63 C 85.57 220.63 84.45 220.63 83.32 220.63 C 83.33 214.79 83.32 208.95 83.33 203.12 Z" />
<path fill="#040707" opacity="1.00" d=" M 128.82 203.24 C 130.12 203.24 131.42 203.25 132.73 203.27 C 133.84 205.35 134.99 207.42 136.15 209.48 C 137.90 207.71 138.98 205.46 140.09 203.27 C 141.39 203.25 142.70 203.24 144.01 203.24 C 142.20 206.13 140.38 209.02 138.57 211.92 C 140.46 214.78 142.28 217.70 144.09 220.62 C 142.86 220.64 141.63 220.61 140.40 220.53 C 138.89 218.51 137.72 216.25 136.31 214.16 C 135.08 216.32 133.83 218.46 132.58 220.60 C 131.32 220.60 130.07 220.60 128.81 220.59 C 130.41 217.66 132.49 215.01 133.92 211.99 C 132.70 208.83 130.50 206.17 128.82 203.24 Z" />
</g>
</svg>

<?xml version="1.0" encoding="utf-8"?>
<!-- Generator: Adobe Illustrator 26.0.3, SVG Export Plug-In . SVG Version: 6.00 Build 0)  -->
<svg version="1.1" id="Layer_1" xmlns="http://www.w3.org/2000/svg" xmlns:xlink="http://www.w3.org/1999/xlink" x="0px" y="0px"
	 viewBox="0 0 250 250" style="enable-background:new 0 0 250 250;" xml:space="preserve">
<style type="text/css">
	.st0{fill:#FFFFFF;}
	.st1{fill:#F37E86;}
	.st2{fill:#15639B;}
	.st3{fill:#449BD4;}
	.st4{fill:#0B2131;}
	.st5{fill:#040707;}
</style>
<g id="_x23_ffffffff">
	<path class="st0" d="M111.4,7.7c24.1-2.6,48.9,1.9,70.1,13.7c25.7,14,45.9,37.9,55.2,65.7c9.3,27.5,8.1,58.4-3.6,85
		c-11.6,26.8-33.6,48.9-60.2,60.7c-26.2,11.7-56.7,13.3-83.9,4.5c-27.1-8.6-50.8-27.5-65.3-52C9.2,161.5,4,132.5,8.7,105.1
		c4.6-27.9,19.8-53.8,41.8-71.5C67.7,19.3,89.2,10.3,111.4,7.7 M124.7,16.8l0.1,0.8c-14.9,22-29.1,44.5-43.8,66.7
		c14.6,8.7,29.4,17,44.2,25.5c14.6-8.5,29.4-16.8,43.9-25.4l0.6,0.2C156.4,64.4,143.2,44.2,130,24C128.4,21.5,127,18.8,124.7,16.8
		 M124.9,124.1c-16.3-9.3-32.5-18.9-48.9-28c-0.3-0.3-0.9-1-1.1-1.3c-7.8,11.8-11.3,26.3-9.6,40.3c1.5,13.8,8,26.9,18.1,36.5
		c10.9,10.6,25.9,16.6,41.1,16.8c11.4,0,22.9-3.2,32.5-9.4c13.2-8.3,22.9-21.9,26.4-37.1c3.6-15.8,0.8-33-8.1-46.6
		C158.6,105,141.8,114.5,124.9,124.1 M146,197.3c2.7,4.8,5.8,9.3,8.3,14.2c0.4,3,0.1,6.1,0.1,9.1c0.9,0,2.6,0,3.5,0
		c0.3-3.7-1-8,1.4-11.3c2.4-4,4.9-7.9,7.1-12c-1.3,0-2.7,0-4,0c-1.9,3.2-3.6,6.5-5.6,9.6c-0.3-0.1-1-0.2-1.3-0.3
		c-2.1-3-3.3-6.4-5.6-9.3C148.6,197.3,147.3,197.3,146,197.3 M96.2,205.7c-1.7-3.6-7.2-3.4-9.5-0.4c2,1.3,5.2,0,6.5,2.3
		c0.5,4.3,0.1,8.7,0.2,13.1c0.8,0,2.5,0,3.4,0c0.2-4.6-0.7-9.3,0.8-13.8c0.6-0.3,1.8-0.9,2.3-1.2c1.1,0.4,2.3,0.8,3.4,1.2
		c0.5,4.6,0.2,9.2,0.3,13.8c1.2,0,2.4-0.1,3.5-0.1c-0.4-5,0.8-10.2-0.8-15C104.2,201.6,98.6,202.4,96.2,205.7 M111,207.3
		c1.2,0.2,2.4,0.4,3.6,0.5c1.6-2.4,4.8-2.8,7-1.1c0,0.7,0.1,2.2,0.2,2.9c-3.2,0.9-6.9,0.4-9.7,2.5c-3,2.6-1.1,8.1,2.8,8.6
		c2.9,1.2,5.4-1,7.7-2.5c0,0.6-0.1,1.8-0.1,2.4l2.8-0.2c-0.1-4.5,0.2-9.1-0.2-13.6C123,200.9,113.4,201.9,111,207.3 M83.3,203.1
		c0,5.8,0,11.7,0,17.5c1.1,0,2.2,0,3.4,0c0.3-4.6-0.9-9.5,1-13.8c-0.9-0.9-2.7-1.7-0.9-3.5C85.6,203.3,84.5,203.2,83.3,203.1
		 M128.8,203.2c1.7,2.9,3.9,5.6,5.1,8.8c-1.4,3-3.5,5.7-5.1,8.6c1.3,0,2.5,0,3.8,0c1.2-2.1,2.5-4.3,3.7-6.4c1.4,2.1,2.6,4.3,4.1,6.4
		c1.2,0.1,2.5,0.1,3.7,0.1c-1.8-2.9-3.6-5.8-5.5-8.7c1.8-2.9,3.6-5.8,5.4-8.7c-1.3,0-2.6,0-3.9,0c-1.1,2.2-2.2,4.4-3.9,6.2
		c-1.2-2.1-2.3-4.1-3.4-6.2C131.4,203.2,130.1,203.2,128.8,203.2z"/>
	<path class="st0" d="M114.6,213.8c2.4-0.6,4.9-1.1,7.4-1.5c-0.2,1.9,0.2,4.5-2,5.3c-1.8,1.3-3.9,0.4-5.7-0.3
		C114.4,216.2,114.5,215,114.6,213.8z"/>
</g>
<g id="_x23_f37e86ff">
	<path class="st1" d="M117.6,0h15.9c21.5,2,42.7,8.7,60.7,20.9c27.1,17.9,46.7,46.7,53.2,78.6c1.2,6.1,2,12.2,2.7,18.4v11.8
		c-1.2,28.6-12.3,56.7-31.3,78c-22.2,25.6-55.3,41-89.1,42.3h-12c-11.8-1.2-23.7-3.3-34.9-7.4c-31.2-11.1-57.4-35.1-71.2-65.2
		c-6.6-13.9-10-29-11.5-44.2v-17.5c1.5-10.9,3.3-21.9,7.1-32.3C18,52.1,41.9,25.8,71.8,11.8C86.2,5,101.8,1.3,117.6,0 M111.4,7.7
		c-22.2,2.5-43.7,11.6-61,25.8c-22,17.8-37.1,43.7-41.8,71.5c-4.7,27.4,0.6,56.5,15,80.3c14.5,24.5,38.2,43.4,65.3,52
		c27.3,8.8,57.8,7.2,83.9-4.5c26.7-11.8,48.6-33.9,60.2-60.7c11.7-26.6,12.9-57.5,3.6-85c-9.3-27.8-29.4-51.7-55.2-65.7
		C160.3,9.6,135.5,5.1,111.4,7.7z"/>
</g>
<g id="_x23_15639bff">
	<path class="st2" d="M124.7,16.8c2.3,2,3.6,4.7,5.3,7.2c13.2,20.2,26.4,40.5,39.7,60.6l-0.6-0.2c-14.5-4.5-29.2-8.6-43.9-12.6
		c-0.1,12.7,0.1,25.4,0,38C110.5,101.3,95.7,93,81,84.3c14-4,28.1-8,42.1-12.1c2.6-0.3,1.9-3.3,2.1-5.2c-0.3-16.5,0.5-33-0.4-49.4
		L124.7,16.8z"/>
	<path class="st2" d="M128.5,181.6c15.6-28.8,31.3-57.5,46.8-86.3c8.9,13.6,11.7,30.8,8.1,46.6c-3.5,15.2-13.2,28.8-26.4,37.1
		c-9.6,6.2-21.1,9.3-32.5,9.4c-2.7-5.9-6-11.4-8.9-17.1c-12.7-23.6-25.4-47.2-38.1-70.8c-0.7-1.4-1-3-1.4-4.5
		c16.4,9.1,32.6,18.7,48.9,28c-0.1,21.2-0.4,42.4,0,63.6C126.2,185.6,127.4,183.6,128.5,181.6z"/>
	<path class="st2" d="M146,197.3c1.3,0,2.6,0,3.9,0.1c2.2,2.8,3.5,6.3,5.6,9.3c0.3,0.1,1,0.2,1.3,0.3c2-3.1,3.7-6.5,5.6-9.6
		c1.3,0,2.6,0,4,0c-2.2,4.1-4.7,8-7.1,12c-2.3,3.3-1.1,7.5-1.4,11.3c-0.9,0-2.6,0-3.5,0c0-3,0.2-6.1-0.1-9.1
		C151.8,206.6,148.7,202.1,146,197.3z"/>
</g>
<g id="_x23_449bd4ff">
	<path class="st3" d="M124.8,17.6c0.9,16.5,0.1,33,0.4,49.4c-0.2,1.8,0.5,4.9-2.1,5.2c-14,4.1-28.1,8.1-42.1,12.1
		C95.7,62.1,109.9,39.6,124.8,17.6z"/>
	<path class="st3" d="M65.4,135.1c-1.8-14,1.8-28.5,9.6-40.3c0.3,0.3,0.9,1,1.1,1.3c0.4,1.5,0.7,3.1,1.4,4.5
		c12.8,23.6,25.4,47.2,38.1,70.8c3,5.7,6.3,11.2,8.9,17.1c-15.2-0.2-30.3-6.2-41.1-16.8C73.4,162,66.8,148.9,65.4,135.1z"/>
</g>
<g id="_x23_0b2131ff">
	<path class="st4" d="M125.2,71.8c14.7,4,29.4,8.1,43.9,12.6c-14.6,8.6-29.3,16.9-43.9,25.4C125.3,97.2,125.1,84.5,125.2,71.8z"/>
	<path class="st4" d="M124.9,124.1c16.9-9.5,33.7-19.1,50.4-28.8c-15.5,28.8-31.3,57.5-46.8,86.3c-1.1,2.1-2.3,4.1-3.6,6.1
		C124.6,166.4,124.9,145.2,124.9,124.1z"/>
</g>
<g id="_x23_040707ff">
	<path class="st5" d="M96.2,205.7c2.3-3.3,8-4.1,10.2-0.2c1.6,4.8,0.4,10.1,0.8,15c-1.2,0-2.4,0.1-3.5,0.1
		c-0.1-4.6,0.2-9.2-0.3-13.8c-1.1-0.4-2.3-0.8-3.4-1.2c-0.6,0.3-1.8,0.9-2.3,1.2c-1.4,4.5-0.6,9.2-0.8,13.8c-0.8,0-2.5,0-3.4,0
		c-0.1-4.4,0.3-8.7-0.2-13.1c-1.3-2.3-4.5-1-6.5-2.3C89,202.3,94.5,202.1,96.2,205.7z"/>
	<path class="st5" d="M111,207.3c2.5-5.4,12-6.4,14.2-0.3c0.5,4.5,0.1,9,0.2,13.6l-2.8,0.2c0-0.6,0.1-1.8,0.1-2.4
		c-2.2,1.5-4.8,3.7-7.7,2.5c-3.8-0.5-5.8-5.9-2.8-8.6c2.7-2.1,6.5-1.7,9.7-2.5c-0.1-0.7-0.1-2.2-0.2-2.9c-2.3-1.7-5.4-1.3-7,1.1
		C113.4,207.7,112.2,207.5,111,207.3 M114.6,213.8c-0.1,1.2-0.2,2.4-0.3,3.6c1.8,0.7,3.9,1.5,5.7,0.3c2.2-0.8,1.8-3.5,2-5.3
		C119.5,212.7,117,213.2,114.6,213.8z"/>
	<path class="st5" d="M83.3,203.1c1.2,0.1,2.3,0.2,3.5,0.3c-1.8,1.7,0,2.6,0.9,3.5c-1.9,4.3-0.7,9.2-1,13.8c-1.1,0-2.2,0-3.4,0
		C83.3,214.8,83.3,208.9,83.3,203.1z"/>
	<path class="st5" d="M128.8,203.2c1.3,0,2.6,0,3.9,0c1.1,2.1,2.3,4.1,3.4,6.2c1.8-1.8,2.8-4,3.9-6.2c1.3,0,2.6,0,3.9,0
		c-1.8,2.9-3.6,5.8-5.4,8.7c1.9,2.9,3.7,5.8,5.5,8.7c-1.2,0-2.5,0-3.7-0.1c-1.5-2-2.7-4.3-4.1-6.4c-1.2,2.2-2.5,4.3-3.7,6.4
		c-1.3,0-2.5,0-3.8,0c1.6-2.9,3.7-5.6,5.1-8.6C132.7,208.8,130.5,206.2,128.8,203.2z"/>
</g>
</svg>
